**kern	**kern	**dynam
*part1	*part1	*part1
*staff2	*staff1	*
*I"Piano	*	*
*clefF4	*clefG2	*
*k[b-]	*k[b-]	*
=1	=1	=1
(8BBBnL	(4G 4e 4g	.
8EE	.	.
8GG	4Bn)	<
8BBn	.	.
8E	4r	.
8GJ)	.	.
=	=	=
(8AAAL	(4c#X 4g 4cc#X	.
8AA	.	.
8C#X	4e)	[
8E	.	.
8A	4r	.
8c#XJ)	.	.
=	=	=
(8GGG#XL	(2d 2bn 2dd	f
8GG#X	.	.
8BBn	.	.
8D	.	.
8F	4f)	.
8BnJ)	.	.
=	=	=
2.r	2.r	.
=	=	=
(8GGGnL	(2B-X 2g 2b-X	>
8GGn	.	.
8BB-X	.	.
8D	.	.
8E	4e)	.
8GJ)	.	.
=	=	=
2.r	2.r	.
=	=	=
(8AAAL	(2A 2f 2a	.
8AA	.	.
8D	.	.
8F	.	.
8AJ)	4d)	.
8r	.	.
=	=	=
*-	*-	*-
!!!system-decoration: {(s1,s2)}
